static/images/logo_ea_nl.svg

<?xml version="1.0" encoding="UTF-8"?>
<svg xmlns="http://www.w3.org/2000/svg" xmlns:xlink="http://www.w3.org/1999/xlink" width="209pt" height="22pt" viewBox="0 0 209 22" version="1.1">
<g>
<path fill="#FFFFFF" d="
M21.52,12.922h4.125v1.059h-2.875v2.699h2.316v1.043h-2.316v2.961h2.875v1.055h-4.125Z
M27.281,12.922h1.441l2.781,7.027c-0.098,-0.719,-0.18,-1.559,-0.18,-2.348v-4.68h1.195v8.816h-1.438l-2.809,-7.051c0.109,0.719,0.203,1.57,0.203,2.371v4.68h-1.195Z
M38.078,18.688h1.941l-0.367,-1.465c-0.188,-0.734,-0.434,-1.859,-0.582,-2.836c-0.164,0.977,-0.422,2.102,-0.609,2.836ZM38.418,12.922h1.289l2.348,8.816h-1.301l-0.52,-1.992h-2.398l-0.504,1.992h-1.262l2.348,-8.816
M44.277,13.98v3.105h0.664c0.977,0,1.629,-0.203,1.629,-1.559c0,-1.344,-0.652,-1.547,-1.629,-1.547ZM43.031,12.922h2.031c1.629,0,2.797,0.609,2.797,2.605c0,1.398,-0.68,2.074,-1.535,2.387l1.875,3.824h-1.426l-1.656,-3.594h-0.84v3.594h-1.246v-8.816
M49.145,17.332c0,-3.297,0.719,-4.57,2.863,-4.57c0.652,0,1.234,0.16,1.52,0.324v1.152c-0.324,-0.176,-0.895,-0.352,-1.438,-0.352c-1.289,0,-1.656,0.582,-1.656,3.445c0,2.887,0.395,3.457,1.656,3.457c0.555,0,1.191,-0.188,1.52,-0.379v1.152c-0.285,0.164,-0.965,0.34,-1.574,0.34c-2.32,0.016,-2.891,-1.273,-2.891,-4.57
M58.965,17.738h-2.684v4h-1.25v-8.816h1.25v3.758h2.684v-3.758h1.25v8.816h-1.25Z
M62.18,21.738h1.246v-8.816h-1.246Z
M64.469,12.922h5.062v1.059h-1.914v7.758h-1.25v-7.758h-1.898Z
M70.574,12.922h4.125v1.059h-2.879v2.699h2.32v1.043h-2.32v2.961h2.879v1.055h-4.125Z
M75.793,17.332c0,-3.297,0.719,-4.57,2.863,-4.57c0.652,0,1.234,0.16,1.52,0.324v1.152c-0.324,-0.176,-0.895,-0.352,-1.438,-0.352c-1.289,0,-1.656,0.582,-1.656,3.445c0,2.887,0.395,3.457,1.656,3.457c0.555,0,1.195,-0.188,1.52,-0.379v1.152c-0.285,0.164,-0.965,0.34,-1.574,0.34c-2.32,0.016,-2.891,-1.273,-2.891,-4.57
M80.77,12.922h5.059v1.059h-1.91v7.758h-1.25v-7.758h-1.898Z
M86.777,19.082v-6.16h1.25v6.215c0,1.301,0.445,1.68,1.355,1.68c0.91,0,1.355,-0.379,1.355,-1.68v-6.215h1.25v6.16c0,2.008,-0.844,2.82,-2.605,2.82c-1.789,0,-2.605,-0.785,-2.605,-2.82
M93.816,19.082v-6.16h1.246v6.215c0,1.301,0.449,1.68,1.359,1.68c0.906,0,1.355,-0.379,1.355,-1.68v-6.215h1.246v6.16c0,2.008,-0.84,2.82,-2.602,2.82c-1.793,0,-2.605,-0.785,-2.605,-2.82
M102.172,13.98v3.105h0.664c0.977,0,1.629,-0.203,1.629,-1.559c0,-1.344,-0.652,-1.547,-1.629,-1.547ZM100.922,12.922h2.035c1.629,0,2.797,0.609,2.797,2.605c0,1.398,-0.68,2.074,-1.535,2.387l1.871,3.824h-1.422l-1.656,-3.594h-0.84v3.594h-1.25v-8.816
M21.52,0.48h3.988v1.059h-2.738v2.699h2.195v1.043h-2.195v4.016h-1.25Z
M27.379,6.246h1.941l-0.367,-1.465c-0.191,-0.734,-0.434,-1.859,-0.586,-2.836c-0.16,0.977,-0.418,2.102,-0.609,2.836ZM27.719,0.48h1.289l2.344,8.816h-1.301l-0.516,-1.992h-2.398l-0.504,1.992h-1.262l2.348,-8.816
M31.988,4.891c0,-3.297,0.719,-4.574,2.863,-4.574c0.652,0,1.234,0.164,1.52,0.328v1.152c-0.324,-0.176,-0.895,-0.355,-1.438,-0.355c-1.289,0,-1.656,0.586,-1.656,3.449c0,2.887,0.395,3.457,1.656,3.457c0.555,0,1.195,-0.191,1.52,-0.379v1.152c-0.285,0.164,-0.965,0.34,-1.574,0.34c-2.32,0.012,-2.891,-1.277,-2.891,-4.57
M37.664,6.637v-6.156h1.25v6.211c0,1.305,0.445,1.684,1.355,1.684c0.91,0,1.359,-0.379,1.359,-1.684v-6.211h1.246v6.156c0,2.008,-0.84,2.824,-2.605,2.824c-1.789,0,-2.605,-0.789,-2.605,-2.824
M44.773,0.48h1.246v7.758h2.742v1.059h-3.988Z
M48.328,0.48h5.059v1.059h-1.914v7.758h-1.25v-7.758h-1.895Z
M54.43,0.48h4.121v1.059h-2.875v2.699h2.32v1.043h-2.32v2.957h2.875v1.059h-4.121Z
M60.191,9.297h1.25v-8.816h-1.25Z
M62.484,0.48h5.059v1.059h-1.91v7.758h-1.25v-7.758h-1.898Z
M70.977,9.297h1.25v-8.816h-1.25Z
M74.191,0.48h1.438l2.781,7.027c-0.094,-0.719,-0.176,-1.562,-0.176,-2.348v-4.68h1.195v8.816h-1.441l-2.809,-7.055c0.109,0.719,0.207,1.574,0.207,2.375v4.68h-1.195Z
M81.055,4.891c0,-3.473,0.922,-4.574,3.215,-4.574c0.652,0,1.34,0.176,1.641,0.355v1.152c-0.324,-0.191,-0.949,-0.395,-1.547,-0.395c-1.465,0,-2.02,0.543,-2.02,3.461c0,2.887,0.391,3.484,1.668,3.484c0.391,0,0.719,-0.055,0.965,-0.121v-2.945h-1.305v-1.059h2.551v4.762c-0.258,0.164,-1.289,0.449,-2.199,0.449c-2.387,0,-2.969,-1.25,-2.969,-4.57
M88.066,0.48h4.121v1.059h-2.875v2.699h2.32v1.043h-2.32v2.957h2.875v1.059h-4.121Z
M93.828,0.48h1.441l2.777,7.027c-0.094,-0.719,-0.176,-1.562,-0.176,-2.348v-4.68h1.195v8.816h-1.438l-2.809,-7.055c0.109,0.719,0.203,1.574,0.203,2.375v4.68h-1.195Z
M101.031,9.297h1.246v-8.816h-1.246Z
M104.242,0.48h4.125v1.059h-2.875v2.699h2.32v1.043h-2.32v2.957h2.875v1.059h-4.125Z
M109.871,6.637v-6.156h1.25v6.211c0,1.305,0.445,1.684,1.355,1.684c0.91,0,1.355,-0.379,1.355,-1.684v-6.211h1.25v6.156c0,2.008,-0.844,2.824,-2.605,2.824c-1.789,0,-2.605,-0.789,-2.605,-2.824
M118.227,1.539v3.105h0.664c0.977,0,1.629,-0.203,1.629,-1.559c0,-1.344,-0.652,-1.547,-1.629,-1.547ZM116.98,0.48h2.035c1.625,0,2.793,0.609,2.793,2.605c0,1.395,-0.68,2.074,-1.535,2.387l1.871,3.824h-1.422l-1.656,-3.594h-0.84v3.594h-1.246v-8.816
M127.977,0.48h1.246l0.719,4.34c0.121,0.707,0.273,2.09,0.355,3.148c0.082,-1.059,0.227,-2.43,0.352,-3.148l0.734,-4.34h1.273l0.734,4.34c0.121,0.707,0.254,2.074,0.336,3.121c0.082,-1.047,0.246,-2.414,0.367,-3.121l0.719,-4.34h1.207l-1.68,8.816h-1.289l-0.723,-4.34c-0.105,-0.652,-0.258,-1.887,-0.34,-2.902c-0.078,1.016,-0.215,2.25,-0.324,2.902l-0.73,4.34h-1.277Z
M137.238,0.48h4.125v1.059h-2.879v2.699h2.324v1.043h-2.324v2.957h2.879v1.059h-4.125Z
M142.094,0.48h5.059v1.059h-1.914v7.758h-1.25v-7.758h-1.895Z
M148.195,0.48h4.121v1.059h-2.875v2.699h2.32v1.043h-2.32v2.957h2.875v1.059h-4.121Z
M153.961,0.48h1.434l2.785,7.027c-0.098,-0.719,-0.18,-1.562,-0.18,-2.348v-4.68h1.195v8.816h-1.438l-2.809,-7.055c0.109,0.719,0.203,1.574,0.203,2.375v4.68h-1.191Z
M165.945,4.891c0,-3.297,0.719,-4.574,2.863,-4.574c0.652,0,1.234,0.164,1.52,0.328v1.152c-0.324,-0.176,-0.895,-0.355,-1.438,-0.355c-1.289,0,-1.656,0.586,-1.656,3.449c0,2.887,0.395,3.457,1.656,3.457c0.555,0,1.195,-0.191,1.52,-0.379v1.152c-0.285,0.164,-0.965,0.34,-1.574,0.34c-2.32,0.012,-2.891,-1.277,-2.891,-4.57
M175.625,5.297h-2.688v4h-1.246v-8.816h1.246v3.758h2.688v-3.758h1.25v8.816h-1.25Z
M179.855,6.246h1.941l-0.367,-1.465c-0.191,-0.734,-0.434,-1.859,-0.582,-2.836c-0.164,0.977,-0.422,2.102,-0.613,2.836ZM180.195,0.48h1.289l2.348,8.816h-1.305l-0.516,-1.992h-2.398l-0.504,1.992h-1.262l2.348,-8.816
M186.055,1.539v3.512h0.73c0.977,0,1.508,-0.352,1.508,-1.762c0,-1.41,-0.531,-1.75,-1.508,-1.75ZM184.805,0.48h2.117c1.668,0,2.66,0.703,2.66,2.809c0,2.047,-1.031,2.809,-2.66,2.809h-0.867v3.199h-1.25v-8.816
M192.277,1.539v3.512h0.734c0.977,0,1.504,-0.352,1.504,-1.762c0,-1.41,-0.527,-1.75,-1.504,-1.75ZM191.031,0.48h2.113c1.672,0,2.66,0.703,2.66,2.809c0,2.047,-1.031,2.809,-2.66,2.809h-0.867v3.199h-1.246v-8.816
M197.254,0.48h4.125v1.059h-2.875v2.699h2.32v1.043h-2.32v2.957h2.875v1.059h-4.125Z
M203.02,0.48h1.438l2.781,7.027c-0.094,-0.719,-0.176,-1.562,-0.176,-2.348v-4.68h1.191v8.816h-1.438l-2.809,-7.055c0.109,0.719,0.203,1.574,0.203,2.375v4.68h-1.191Z
M125.738,1.387c0.551,0,1.07,0.18,1.309,0.367v-1.125c-0.238,-0.145,-0.824,-0.309,-1.418,-0.309c-1.652,0,-2.566,0.941,-2.566,2.305c0,1.141,0.484,1.688,1.258,2.355l0.711,0.613c0.586,0.492,0.949,0.871,0.949,1.602c0,0.859,-0.566,1.199,-1.418,1.199c-0.641,0,-1.176,-0.18,-1.488,-0.391v1.141c0.273,0.156,0.84,0.32,1.602,0.316c1.652,-0.004,2.562,-0.941,2.562,-2.305c0.004,-1.141,-0.48,-1.688,-1.258,-2.355l-0.707,-0.613c-0.59,-0.504,-0.953,-0.867,-0.953,-1.602c0.004,-0.859,0.566,-1.195,1.418,-1.199
M163.312,1.387c0.547,0,1.07,0.18,1.305,0.367v-1.125c-0.234,-0.145,-0.82,-0.309,-1.418,-0.309c-1.652,0,-2.562,0.941,-2.562,2.305c0,1.141,0.48,1.688,1.258,2.355l0.711,0.613c0.582,0.492,0.949,0.871,0.949,1.602c0,0.859,-0.57,1.199,-1.418,1.199c-0.645,0,-1.18,-0.18,-1.488,-0.391v1.141c0.27,0.156,0.836,0.32,1.598,0.316c1.652,-0.004,2.562,-0.941,2.566,-2.305c0,-1.141,-0.484,-1.688,-1.258,-2.355l-0.711,-0.613c-0.586,-0.504,-0.953,-0.867,-0.949,-1.602c0,-0.859,0.562,-1.195,1.418,-1.199
M0.258,21.738h1.25v-3.684h-1.25Z
M2.754,21.738h1.246v-8.219h-1.246Z
M5.246,21.738h1.25v-12.754h-1.25Z
M8.586,0.48h-0.844v21.258h1.246v-19.086l7.031,7.027v12.059h1.246v-12.578Z
"/>
</g>
</svg>

<?xml version="1.0" encoding="UTF-8"?>
<svg xmlns="http://www.w3.org/2000/svg" xmlns:xlink="http://www.w3.org/1999/xlink" width="209pt" height="22pt" viewBox="0 0 209 22" version="1.1">
<g id="surface1">
<path fill="#FFFFFF" d="M21.52,12.922L25.645,12.922L25.645,13.98L22.77,13.98L22.77,16.68L25.086,16.68L25.086,17.723L22.77,17.723L22.77,20.684L25.645,20.684L25.645,21.738L21.52,21.738L21.52,12.922"/>
<path fill="#FFFFFF" d="M27.281,12.922L28.723,12.922L31.504,19.949C31.406,19.23,31.324,18.391,31.324,17.602L31.324,12.922L32.52,12.922L32.52,21.738L31.082,21.738L28.273,14.688C28.383,15.406,28.477,16.258,28.477,17.059L28.477,21.738L27.281,21.738L27.281,12.922"/>
<path fill="#FFFFFF" d="M38.078,18.688L40.02,18.688L39.652,17.223C39.465,16.488,39.219,15.363,39.07,14.387C38.906,15.363,38.648,16.488,38.461,17.223Z M38.418,12.922L39.707,12.922L42.055,21.738L40.754,21.738L40.234,19.746L37.836,19.746L37.332,21.738L36.07,21.738L38.418,12.922"/>
<path fill="#FFFFFF" d="M44.277,13.98L44.277,17.086L44.941,17.086C45.918,17.086,46.57,16.883,46.57,15.527C46.57,14.184,45.918,13.98,44.941,13.98Z M43.031,12.922L45.062,12.922C46.691,12.922,47.859,13.531,47.859,15.527C47.859,16.926,47.18,17.602,46.324,17.914L48.199,21.738L46.773,21.738L45.117,18.145L44.277,18.145L44.277,21.738L43.031,21.738L43.031,12.922"/>
<path fill="#FFFFFF" d="M49.145,17.332C49.145,14.035,49.863,12.762,52.008,12.762C52.66,12.762,53.242,12.922,53.527,13.086L53.527,14.238C53.203,14.062,52.633,13.887,52.09,13.887C50.801,13.887,50.434,14.469,50.434,17.332C50.434,20.219,50.828,20.789,52.09,20.789C52.645,20.789,53.281,20.602,53.609,20.41L53.609,21.562C53.324,21.727,52.645,21.902,52.035,21.902C49.715,21.918,49.145,20.629,49.145,17.332"/>
<path fill="#FFFFFF" d="M58.965,17.738L56.281,17.738L56.281,21.738L55.031,21.738L55.031,12.922L56.281,12.922L56.281,16.68L58.965,16.68L58.965,12.922L60.215,12.922L60.215,21.738L58.965,21.738L58.965,17.738"/>
<path fill="#FFFFFF" d="M62.18,21.738L63.426,21.738L63.426,12.922L62.18,12.922Z M62.18,21.738"/>
<path fill="#FFFFFF" d="M64.469,12.922L69.531,12.922L69.531,13.98L67.617,13.98L67.617,21.738L66.367,21.738L66.367,13.98L64.469,13.98L64.469,12.922"/>
<path fill="#FFFFFF" d="M70.574,12.922L74.699,12.922L74.699,13.98L71.82,13.98L71.82,16.68L74.141,16.68L74.141,17.723L71.82,17.723L71.82,20.684L74.699,20.684L74.699,21.738L70.574,21.738L70.574,12.922"/>
<path fill="#FFFFFF" d="M75.793,17.332C75.793,14.035,76.512,12.762,78.656,12.762C79.309,12.762,79.891,12.922,80.176,13.086L80.176,14.238C79.852,14.062,79.281,13.887,78.738,13.887C77.449,13.887,77.082,14.469,77.082,17.332C77.082,20.219,77.477,20.789,78.738,20.789C79.293,20.789,79.934,20.602,80.258,20.41L80.258,21.562C79.973,21.727,79.293,21.902,78.684,21.902C76.363,21.918,75.793,20.629,75.793,17.332"/>
<path fill="#FFFFFF" d="M80.77,12.922L85.828,12.922L85.828,13.98L83.918,13.98L83.918,21.738L82.668,21.738L82.668,13.98L80.77,13.98L80.77,12.922"/>
<path fill="#FFFFFF" d="M86.777,19.082L86.777,12.922L88.027,12.922L88.027,19.137C88.027,20.438,88.473,20.816,89.383,20.816C90.293,20.816,90.738,20.438,90.738,19.137L90.738,12.922L91.988,12.922L91.988,19.082C91.988,21.09,91.145,21.902,89.383,21.902C87.594,21.902,86.777,21.117,86.777,19.082"/>
<path fill="#FFFFFF" d="M93.816,19.082L93.816,12.922L95.062,12.922L95.062,19.137C95.062,20.438,95.512,20.816,96.422,20.816C97.328,20.816,97.777,20.438,97.777,19.137L97.777,12.922L99.023,12.922L99.023,19.082C99.023,21.09,98.184,21.902,96.422,21.902C94.629,21.902,93.816,21.117,93.816,19.082"/>
<path fill="#FFFFFF" d="M102.172,13.98L102.172,17.086L102.836,17.086C103.812,17.086,104.465,16.883,104.465,15.527C104.465,14.184,103.812,13.98,102.836,13.98Z M100.922,12.922L102.957,12.922C104.586,12.922,105.754,13.531,105.754,15.527C105.754,16.926,105.074,17.602,104.219,17.914L106.09,21.738L104.668,21.738L103.012,18.145L102.172,18.145L102.172,21.738L100.922,21.738L100.922,12.922"/>
<path fill="#FFFFFF" d="M21.52,0.48L25.508,0.48L25.508,1.539L22.77,1.539L22.77,4.238L24.965,4.238L24.965,5.281L22.77,5.281L22.77,9.297L21.52,9.297L21.52,0.48"/>
<path fill="#FFFFFF" d="M27.379,6.246L29.32,6.246L28.953,4.781C28.762,4.047,28.52,2.922,28.367,1.945C28.207,2.922,27.949,4.047,27.758,4.781Z M27.719,0.48L29.008,0.48L31.352,9.297L30.051,9.297L29.535,7.305L27.137,7.305L26.633,9.297L25.371,9.297L27.719,0.48"/>
<path fill="#FFFFFF" d="M31.988,4.891C31.988,1.594,32.707,0.316,34.852,0.316C35.504,0.316,36.086,0.48,36.371,0.645L36.371,1.797C36.047,1.621,35.477,1.441,34.934,1.441C33.645,1.441,33.277,2.027,33.277,4.891C33.277,7.777,33.672,8.348,34.934,8.348C35.488,8.348,36.129,8.156,36.453,7.969L36.453,9.121C36.168,9.285,35.488,9.461,34.879,9.461C32.559,9.473,31.988,8.184,31.988,4.891"/>
<path fill="#FFFFFF" d="M37.664,6.637L37.664,0.48L38.914,0.48L38.914,6.691C38.914,7.996,39.359,8.375,40.27,8.375C41.18,8.375,41.629,7.996,41.629,6.691L41.629,0.48L42.875,0.48L42.875,6.637C42.875,8.645,42.035,9.461,40.27,9.461C38.48,9.461,37.664,8.672,37.664,6.637"/>
<path fill="#FFFFFF" d="M44.773,0.48L46.02,0.48L46.02,8.238L48.762,8.238L48.762,9.297L44.773,9.297L44.773,0.48"/>
<path fill="#FFFFFF" d="M48.328,0.48L53.387,0.48L53.387,1.539L51.473,1.539L51.473,9.297L50.223,9.297L50.223,1.539L48.328,1.539L48.328,0.48"/>
<path fill="#FFFFFF" d="M54.43,0.48L58.551,0.48L58.551,1.539L55.676,1.539L55.676,4.238L57.996,4.238L57.996,5.281L55.676,5.281L55.676,8.238L58.551,8.238L58.551,9.297L54.43,9.297L54.43,0.48"/>
<path fill="#FFFFFF" d="M60.191,9.297L61.441,9.297L61.441,0.48L60.191,0.48Z M60.191,9.297"/>
<path fill="#FFFFFF" d="M62.484,0.48L67.543,0.48L67.543,1.539L65.633,1.539L65.633,9.297L64.383,9.297L64.383,1.539L62.484,1.539L62.484,0.48"/>
<path fill="#FFFFFF" d="M70.977,9.297L72.227,9.297L72.227,0.48L70.977,0.48Z M70.977,9.297"/>
<path fill="#FFFFFF" d="M74.191,0.48L75.629,0.48L78.41,7.508C78.316,6.789,78.234,5.945,78.234,5.16L78.234,0.48L79.43,0.48L79.43,9.297L77.988,9.297L75.18,2.242C75.289,2.961,75.387,3.816,75.387,4.617L75.387,9.297L74.191,9.297L74.191,0.48"/>
<path fill="#FFFFFF" d="M81.055,4.891C81.055,1.418,81.977,0.316,84.27,0.316C84.922,0.316,85.609,0.492,85.91,0.672L85.91,1.824C85.586,1.633,84.961,1.43,84.363,1.43C82.898,1.43,82.344,1.973,82.344,4.891C82.344,7.777,82.734,8.375,84.012,8.375C84.402,8.375,84.73,8.32,84.977,8.254L84.977,5.309L83.672,5.309L83.672,4.25L86.223,4.25L86.223,9.012C85.965,9.176,84.934,9.461,84.023,9.461C81.637,9.461,81.055,8.211,81.055,4.891"/>
<path fill="#FFFFFF" d="M88.066,0.48L92.188,0.48L92.188,1.539L89.312,1.539L89.312,4.238L91.633,4.238L91.633,5.281L89.312,5.281L89.312,8.238L92.188,8.238L92.188,9.297L88.066,9.297L88.066,0.48"/>
<path fill="#FFFFFF" d="M93.828,0.48L95.27,0.48L98.047,7.508C97.953,6.789,97.871,5.945,97.871,5.16L97.871,0.48L99.066,0.48L99.066,9.297L97.629,9.297L94.82,2.242C94.93,2.961,95.023,3.816,95.023,4.617L95.023,9.297L93.828,9.297L93.828,0.48"/>
<path fill="#FFFFFF" d="M101.031,9.297L102.277,9.297L102.277,0.48L101.031,0.48Z M101.031,9.297"/>
<path fill="#FFFFFF" d="M104.242,0.48L108.367,0.48L108.367,1.539L105.492,1.539L105.492,4.238L107.812,4.238L107.812,5.281L105.492,5.281L105.492,8.238L108.367,8.238L108.367,9.297L104.242,9.297L104.242,0.48"/>
<path fill="#FFFFFF" d="M109.871,6.637L109.871,0.48L111.121,0.48L111.121,6.691C111.121,7.996,111.566,8.375,112.477,8.375C113.387,8.375,113.832,7.996,113.832,6.691L113.832,0.48L115.082,0.48L115.082,6.637C115.082,8.645,114.238,9.461,112.477,9.461C110.688,9.461,109.871,8.672,109.871,6.637"/>
<path fill="#FFFFFF" d="M118.227,1.539L118.227,4.645L118.891,4.645C119.867,4.645,120.52,4.441,120.52,3.086C120.52,1.742,119.867,1.539,118.891,1.539Z M116.98,0.48L119.016,0.48C120.641,0.48,121.809,1.09,121.809,3.086C121.809,4.48,121.129,5.16,120.273,5.473L122.145,9.297L120.723,9.297L119.066,5.703L118.227,5.703L118.227,9.297L116.98,9.297L116.98,0.48"/>
<path fill="#FFFFFF" d="M127.977,0.48L129.223,0.48L129.941,4.82C130.062,5.527,130.215,6.91,130.297,7.969C130.379,6.91,130.523,5.539,130.648,4.82L131.383,0.48L132.656,0.48L133.391,4.82C133.512,5.527,133.645,6.895,133.727,7.941C133.809,6.895,133.973,5.527,134.094,4.82L134.812,0.48L136.02,0.48L134.34,9.297L133.051,9.297L132.328,4.957C132.223,4.305,132.07,3.07,131.988,2.055C131.91,3.07,131.773,4.305,131.664,4.957L130.934,9.297L129.656,9.297L127.977,0.48"/>
<path fill="#FFFFFF" d="M137.238,0.48L141.363,0.48L141.363,1.539L138.484,1.539L138.484,4.238L140.809,4.238L140.809,5.281L138.484,5.281L138.484,8.238L141.363,8.238L141.363,9.297L137.238,9.297L137.238,0.48"/>
<path fill="#FFFFFF" d="M142.094,0.48L147.152,0.48L147.152,1.539L145.238,1.539L145.238,9.297L143.988,9.297L143.988,1.539L142.094,1.539L142.094,0.48"/>
<path fill="#FFFFFF" d="M148.195,0.48L152.316,0.48L152.316,1.539L149.441,1.539L149.441,4.238L151.762,4.238L151.762,5.281L149.441,5.281L149.441,8.238L152.316,8.238L152.316,9.297L148.195,9.297L148.195,0.48"/>
<path fill="#FFFFFF" d="M153.961,0.48L155.395,0.48L158.18,7.508C158.082,6.789,158,5.945,158,5.16L158,0.48L159.195,0.48L159.195,9.297L157.758,9.297L154.949,2.242C155.059,2.961,155.152,3.816,155.152,4.617L155.152,9.297L153.961,9.297L153.961,0.48"/>
<path fill="#FFFFFF" d="M165.945,4.891C165.945,1.594,166.664,0.316,168.809,0.316C169.461,0.316,170.043,0.48,170.328,0.645L170.328,1.797C170.004,1.621,169.434,1.441,168.891,1.441C167.602,1.441,167.234,2.027,167.234,4.891C167.234,7.777,167.629,8.348,168.891,8.348C169.445,8.348,170.086,8.156,170.41,7.969L170.41,9.121C170.125,9.285,169.445,9.461,168.836,9.461C166.516,9.473,165.945,8.184,165.945,4.891"/>
<path fill="#FFFFFF" d="M175.625,5.297L172.938,5.297L172.938,9.297L171.691,9.297L171.691,0.48L172.938,0.48L172.938,4.238L175.625,4.238L175.625,0.48L176.875,0.48L176.875,9.297L175.625,9.297L175.625,5.297"/>
<path fill="#FFFFFF" d="M179.855,6.246L181.797,6.246L181.43,4.781C181.238,4.047,180.996,2.922,180.848,1.945C180.684,2.922,180.426,4.047,180.234,4.781Z M180.195,0.48L181.484,0.48L183.832,9.297L182.527,9.297L182.012,7.305L179.613,7.305L179.109,9.297L177.848,9.297L180.195,0.48"/>
<path fill="#FFFFFF" d="M186.055,1.539L186.055,5.051L186.785,5.051C187.762,5.051,188.293,4.699,188.293,3.289C188.293,1.879,187.762,1.539,186.785,1.539Z M184.805,0.48L186.922,0.48C188.59,0.48,189.582,1.184,189.582,3.289C189.582,5.336,188.551,6.098,186.922,6.098L186.055,6.098L186.055,9.297L184.805,9.297L184.805,0.48"/>
<path fill="#FFFFFF" d="M192.277,1.539L192.277,5.051L193.012,5.051C193.988,5.051,194.516,4.699,194.516,3.289C194.516,1.879,193.988,1.539,193.012,1.539Z M191.031,0.48L193.145,0.48C194.816,0.48,195.805,1.184,195.805,3.289C195.805,5.336,194.773,6.098,193.145,6.098L192.277,6.098L192.277,9.297L191.031,9.297L191.031,0.48"/>
<path fill="#FFFFFF" d="M197.254,0.48L201.379,0.48L201.379,1.539L198.504,1.539L198.504,4.238L200.824,4.238L200.824,5.281L198.504,5.281L198.504,8.238L201.379,8.238L201.379,9.297L197.254,9.297L197.254,0.48"/>
<path fill="#FFFFFF" d="M203.02,0.48L204.457,0.48L207.238,7.508C207.145,6.789,207.062,5.945,207.062,5.16L207.062,0.48L208.254,0.48L208.254,9.297L206.816,9.297L204.008,2.242C204.117,2.961,204.211,3.816,204.211,4.617L204.211,9.297L203.02,9.297L203.02,0.48"/>
<path fill="#FFFFFF" d="M125.738,1.387C126.289,1.387,126.809,1.566,127.047,1.754L127.047,0.629C126.809,0.484,126.223,0.32,125.629,0.32C123.977,0.32,123.062,1.262,123.062,2.625C123.062,3.766,123.547,4.312,124.32,4.98L125.031,5.594C125.617,6.086,125.98,6.465,125.98,7.195C125.98,8.055,125.414,8.395,124.562,8.395C123.922,8.395,123.387,8.215,123.074,8.004L123.074,9.145C123.348,9.301,123.914,9.465,124.676,9.461C126.328,9.457,127.238,8.52,127.238,7.156C127.242,6.016,126.758,5.469,125.98,4.801L125.273,4.188C124.684,3.684,124.32,3.32,124.32,2.586C124.324,1.727,124.887,1.391,125.738,1.387"/>
<path fill="#FFFFFF" d="M163.312,1.387C163.859,1.387,164.383,1.566,164.617,1.754L164.617,0.629C164.383,0.484,163.797,0.32,163.199,0.32C161.547,0.32,160.637,1.262,160.637,2.625C160.637,3.766,161.117,4.312,161.895,4.98L162.605,5.594C163.188,6.086,163.555,6.465,163.555,7.195C163.555,8.055,162.984,8.395,162.137,8.395C161.492,8.395,160.957,8.215,160.648,8.004L160.648,9.145C160.918,9.301,161.484,9.465,162.246,9.461C163.898,9.457,164.809,8.52,164.812,7.156C164.812,6.016,164.328,5.469,163.555,4.801L162.844,4.188C162.258,3.684,161.891,3.32,161.895,2.586C161.895,1.727,162.457,1.391,163.312,1.387"/>
<path fill="#FFFFFF" d="M0.258,21.738L1.508,21.738L1.508,18.055L0.258,18.055Z M0.258,21.738"/>
<path fill="#FFFFFF" d="M2.754,21.738L4,21.738L4,13.52L2.754,13.52Z M2.754,21.738"/>
<path fill="#FFFFFF" d="M5.246,21.738L6.496,21.738L6.496,8.984L5.246,8.984Z M5.246,21.738"/>
<path fill="#FFFFFF" d="M8.586,0.48L7.742,0.48L7.742,21.738L8.988,21.738L8.988,2.652L16.02,9.68L16.02,21.738L17.266,21.738L17.266,9.16L8.586,0.48"/>
</g>
</svg>
